packages/kaspersky-hexa-ui-icons/src/iconsSVGs/32/Cloud.svg

<svg width="32" height="32" viewBox="0 0 32 32" fill="none" xmlns="http://www.w3.org/2000/svg">
<path fill-rule="evenodd" clip-rule="evenodd" d="M16 7C12.5827 7 10.4225 9.54774 9.98639 12.1644C9.90603 12.6466 9.48884 13 9 13C6.23858 13 4 15.2386 4 18C4 20.7614 6.23858 23 9 23H23C25.7614 23 28 20.7614 28 18C28 15.2386 25.7614 13 23 13C22.5112 13 22.094 12.6466 22.0136 12.1644C21.5775 9.54774 19.4173 7 16 7ZM8.18617 11.0468C9.02965 7.93628 11.7736 5 16 5C20.2264 5 22.9704 7.93628 23.8138 11.0468C27.2964 11.45 30 14.4093 30 18C30 21.866 26.866 25 23 25H9C5.13401 25 2 21.866 2 18C2 14.4093 4.70358 11.45 8.18617 11.0468Z" fill="black"/>
</svg>

<svg xmlns="http://www.w3.org/2000/svg" width="32" height="32" fill="none" viewBox="0 0 32 32"><path fill="#000" fill-rule="evenodd" d="M16 7c-3.4173 0-5.5775 2.5477-6.0136 5.1644A1 1 0 0 1 9 13c-2.7614 0-5 2.2386-5 5s2.2386 5 5 5h14c2.7614 0 5-2.2386 5-5s-2.2386-5-5-5a1 1 0 0 1-.9864-.8356C21.5775 9.5477 19.4173 7 16 7m-7.8138 4.0468C9.0297 7.9363 11.7736 5 16 5s6.9704 2.9363 7.8138 6.0468C27.2964 11.45 30 14.4093 30 18c0 3.866-3.134 7-7 7H9c-3.866 0-7-3.134-7-7 0-3.5907 2.7036-6.55 6.1862-6.9532"/></svg>
